X:0564
M:2/4
L:1/16
Q:1/4=112
K:D
f2(fa) .g2`.g2 |   e2(eg) .f2.f2 | d2(df)   e2``e2 |    c2`c2  d4 ::
e4     (dc)(BA)|  .e2.e2(``c2`A2)| a4      (gf``ed)|   .a2.a2  f2d2|\
f2(fa) .g2`.g2 |  (e2`eg) .f2.f2 | d2(df)  .e2`.e2 |    c2`c2  d4 ::

